images/HTML5_Badge.svg

<svg xmlns="http://www.w3.org/2000/svg" viewBox="0 0 512 512"><title>HTML5 Logo Badge</title><path fill="#E34F26" d="M71 460L30 0h451l-41 460-185 52"/><path fill="#EF652A" d="M256 472l149-41 35-394H256"/><path fill="#EBEBEB" d="M256 208h-75l-5-58h80V94H114l1 15 14 156h127zm0 147h-1l-63-17-4-45h-56l7 89 116 32h1z"/><path fill="#FFF" d="M255 208v57h70l-7 73-63 17v59l116-32 1-10 13-149 2-15h-16zm0-114v56h137l1-12 3-29 1-15z"/></svg>

<svg xmlns="http://www.w3.org/2000/svg" viewBox="0 0 512 512">
  <title>HTML5 Logo Badge</title>
  <path fill="#E34F26" d="M71,460 L30,0 481,0 440,460 255,512"/>
  <path fill="#EF652A" d="M256,472 L405,431 440,37 256,37"/>
  <path fill="#EBEBEB" d="M256,208 L181,208 176,150 256,150 256,94 255,94 114,94 115,109 129,265 256,265zM256,355 L255,355 192,338 188,293 158,293 132,293 139,382 255,414 256,414z"/>
  <path fill="#FFF" d="M255,208 L255,265 325,265 318,338 255,355 255,414 371,382 372,372 385,223 387,208 371,208zM255,94 L255,129 255,150 255,150 392,150 392,150 392,150 393,138 396,109 397,94z"/>
</svg>
